!!!OTL: Graserin und Reiter Es wollt ein Madel grasen gehn
!!!ARE: Europa, Osteuropa, Ungarn, Budapest, Budakeszi
!!!YOR: 7, S. 148
!!    1971 aufgezeichnet
!!!SCT: Q0149I
!!!YEM: Copyright 1995, estate of Helmut Schaffrath.
**kern
*ICvox
*Ivox
!! Mixed meters:  2/4; 3/4
*M2/4
*k[f#]
*G:
{8d
=1
8g
8a
8b
8cc
=2
8dd
8dd
8dd}
{8dd
=3
8ee
8ff#
8gg
8ee
=4
*M3/4
4ee
4dd
8r}
{8dd
=5
*M2/4
8ee
8ff#
8gg
8ee
=6
*M3/4
4ee
4dd
8r}
{8gg
=7
*M2/4
8dd
8b
8a
16cc
16cc
=8
8cc
8b
8g}
{8b
=9
8b
8a
8cc
8f#
=10
*M3/4
8g
8b
4dd
8r}
{8gg
=11
*M2/4
8dd
8b
8a
16cc
16cc
=12
8cc
8b
8g}
{8b
=13
8b
8a
8cc
8f#
=14
4g
8r}
==
!!!AGN: Ballade, Verfuehrung, Verlassen des Elternhauses
!! Transkription einer Tonaufnahme. Taktart in Taktwechsel geaendert.
!!!ONB: ESAC (Essen Associative Code) Database: BALLADE
!!!AMT: irregular
!!!AIN: vox
!!!EED: Helmut Schaffrath
!!!EEV: 1.0
*-
